findly-builder/apps/searchassist/src/assets/images/empty-screen/contract-message.svg

<svg width="150" height="132" viewBox="0 0 150 132" fill="none" xmlns="http://www.w3.org/2000/svg">
<g clip-path="url(#clip0_123_3679)">
<path d="M47.7892 131.303C47.7892 131.303 48.3311 112.459 68.0972 96.8539C81.7959 86.039 105.444 75.2132 114.305 50.386C119.885 34.7513 119.333 19.2442 130.083 11.5341C133.307 9.22194 136.237 7.5606 140.176 6.19857C143.864 4.92341 149.708 3.92771 149.708 3.92771C149.708 3.92771 146.563 1.78398 140.94 0.996106C124.375 -1.32467 103.96 2.44616 95.728 6.60733C90.9508 9.02216 88.1306 13.2892 86.2276 17.1026C83.1003 23.3694 82.5943 33.0372 82.4625 36.6563C82.3465 39.8448 80.8746 45.0151 73.9084 50.0818C63.0261 57.9969 45.6932 65.1736 35.1936 71.7033C9.14819 87.9007 4.05172 105.139 0.292114 119.068C26.2072 122.506 47.7892 131.303 47.7892 131.303Z" fill="white"/>
<path d="M47.789 131.591C47.7524 131.591 47.7155 131.584 47.6806 131.569C47.4651 131.482 25.8333 122.746 0.254465 119.353C0.172341 119.342 0.0988456 119.296 0.0529652 119.227C0.0069409 119.159 -0.00701021 119.073 0.0145637 118.993C1.66381 112.882 3.9226 104.513 9.14118 96.0846C14.9122 86.7635 23.3844 78.7083 35.0419 71.4584C39.3922 68.7529 44.8593 65.9641 50.6473 63.0115C58.8704 58.8166 67.3734 54.4788 73.7393 49.8487C80.4935 44.9364 82.0547 39.9573 82.1752 36.6454C82.4852 28.1303 83.7976 21.3279 85.9705 16.9737C87.6197 13.6688 90.4123 8.97185 95.5983 6.35019C99.8586 4.19669 107.174 2.22872 115.168 1.08588C124.261 -0.214018 133.428 -0.347201 140.98 0.71107C146.605 1.49909 149.739 3.60067 149.87 3.6897C149.967 3.75572 150.014 3.87409 149.989 3.98872C149.964 4.10335 149.872 4.19122 149.756 4.21093C149.698 4.22085 143.893 5.21742 140.27 6.47014C136.659 7.71884 133.756 9.25361 130.251 11.7675C123.002 16.9667 120.964 25.7148 118.604 35.844C117.497 40.5928 116.353 45.5033 114.576 50.4824C111.482 59.1527 106.335 66.8769 98.8422 74.0965C92.3316 80.3694 84.9572 85.3924 78.4509 89.824C74.7597 92.3382 71.2732 94.7129 68.2757 97.0793C58.1264 105.092 53.1753 113.971 50.8091 120.009C48.2444 126.554 48.0783 131.265 48.0768 131.312C48.074 131.406 48.0253 131.493 47.9464 131.544C47.8986 131.575 47.844 131.591 47.789 131.591ZM0.655452 118.826C24.3312 122.012 44.5629 129.725 47.5266 130.889C47.6257 129.599 48.1011 125.351 50.2631 119.825C52.654 113.714 57.6579 104.729 67.9192 96.6277C70.9325 94.2486 74.4272 91.8683 78.1271 89.3483C84.6145 84.9296 91.9676 79.9213 98.4431 73.682C105.871 66.5255 110.97 58.8735 114.034 50.289C115.8 45.3408 116.94 40.4466 118.043 35.7134C120.43 25.471 122.491 16.6254 129.915 11.3C133.469 8.75122 136.415 7.19445 140.082 5.92634C142.96 4.9315 147.18 4.09889 148.894 3.78146C147.709 3.13583 144.944 1.84715 140.9 1.28062C133.4 0.229972 124.291 0.362867 115.25 1.65529C107.315 2.78964 100.065 4.73661 95.8579 6.86336C90.8242 9.40793 88.098 13.9986 86.4851 17.2303C84.3487 21.5117 83.0572 28.2324 82.7502 36.6661C82.6251 40.1057 81.0189 45.2653 74.0777 50.3137C67.6751 54.9705 59.1516 59.3188 50.9086 63.5237C45.1319 66.4707 39.6753 69.2543 35.3458 71.9467C9.07818 88.2826 4.14912 105.887 0.655452 118.826Z" fill="#5B2448"/>
<path d="M111.307 43.1524C111.307 43.1524 111.306 43.1524 111.306 43.1524L84.2233 43.048C84.0645 43.0474 83.9362 42.9181 83.9368 42.7592C83.9373 42.6002 84.0724 42.4707 84.2256 42.4727L111.308 42.5771C111.467 42.5777 111.595 42.707 111.595 42.8659C111.594 43.0244 111.465 43.1524 111.307 43.1524Z" fill="#5B2448"/>
<path d="M109.269 47.3555C109.269 47.3555 109.269 47.3555 109.268 47.3555L82.1857 47.2511C82.0269 47.2505 81.8986 47.1212 81.8992 46.9623C81.8997 46.8038 82.0283 46.6758 82.1868 46.6758H82.188L109.271 46.7802C109.429 46.7808 109.558 46.9101 109.557 47.069C109.557 47.2274 109.428 47.3555 109.269 47.3555Z" fill="#5B2448"/>
<path d="M99.3175 50.4254L98.329 52.1986C96.4862 55.504 94.1054 58.4791 91.2846 61.0018L89.1175 62.9395C89.0535 63.0179 88.9513 63.0543 88.8522 63.0337L68.1102 58.7365C67.8246 58.6774 67.7453 58.3071 67.9816 58.136L69.7993 57.0995C73.272 55.1192 76.483 52.7115 79.3571 49.9328L79.4503 49.8426C79.5172 49.7943 79.5979 49.7687 79.6804 49.7696L99.11 49.9826C99.3374 49.9853 99.4611 50.2494 99.3175 50.4254Z" fill="#9B3C82"/>
<path d="M90.2354 70.9266C90.2113 70.9266 90.1869 70.9235 90.1624 70.9172L60.2733 63.1091C60.1197 63.0689 60.0276 62.9117 60.0677 62.758C60.1079 62.6045 60.2644 62.5123 60.4187 62.5523L90.3077 70.3606C90.4613 70.4007 90.5534 70.5579 90.5132 70.7117C90.4797 70.8408 90.3631 70.9266 90.2354 70.9266Z" fill="#5B2448"/>
<path d="M82.801 75.0172C82.7738 75.0172 82.746 75.0134 82.7187 75.0052L53.3628 66.2529C53.2105 66.2075 53.124 66.0473 53.1693 65.8951C53.2147 65.7426 53.3755 65.6562 53.5271 65.7015L82.883 74.4537C83.0353 74.4992 83.1219 74.6594 83.0765 74.8116C83.0393 74.9364 82.925 75.0172 82.801 75.0172Z" fill="#5B2448"/>
<path d="M75.5826 79.0113C75.5554 79.0113 75.5276 79.0074 75.5003 78.9992L46.1445 70.247C45.9921 70.2015 45.9056 70.0413 45.9509 69.8891C45.9963 69.7367 46.1571 69.6505 46.3087 69.6955L75.6646 78.4478C75.8169 78.4932 75.9035 78.6534 75.8582 78.8056C75.8209 78.9306 75.7064 79.0113 75.5826 79.0113Z" fill="#5B2448"/>
<path d="M45.6933 118.69C45.6628 118.69 45.6318 118.685 45.6013 118.675L38.6184 116.317C30.6947 113.64 22.4934 111.591 14.2419 110.227L6.67424 108.976C6.51747 108.95 6.41147 108.802 6.43736 108.645C6.46325 108.488 6.61096 108.383 6.76816 108.408L14.3358 109.659C22.6179 111.029 30.8496 113.085 38.8025 115.772L45.7854 118.13C45.936 118.181 46.0166 118.344 45.9659 118.494C45.9255 118.615 45.8134 118.69 45.6933 118.69Z" fill="#5B2448"/>
<path d="M112.697 38.9494C112.696 38.9494 112.696 38.9494 112.696 38.9494L85.6132 38.8448C85.4544 38.8443 85.3261 38.715 85.3267 38.556C85.3272 38.3975 85.4558 38.2695 85.6143 38.2695H85.6155L112.698 38.3741C112.857 38.3747 112.985 38.504 112.985 38.6629C112.984 38.8214 112.855 38.9494 112.697 38.9494Z" fill="#5B2448"/>
<path d="M34.8829 117.922C34.774 117.922 34.6641 117.905 34.5564 117.871C34.1192 117.732 33.8174 117.332 33.8046 116.873L33.606 109.773C33.5893 109.178 34.0585 108.682 34.6541 108.665C35.2428 108.646 35.7459 109.117 35.7625 109.713L35.8746 113.72L42.7871 104.493C43.1443 104.016 43.8204 103.919 44.2973 104.276C44.774 104.633 44.871 105.309 44.5139 105.786L35.7462 117.49C35.539 117.767 35.2166 117.922 34.8829 117.922Z" fill="#F94F46"/>
</g>
<defs>
<clipPath id="clip0_123_3679">
<rect width="150" height="131.592" fill="white"/>
</clipPath>
</defs>
</svg>

<svg width="150" height="132" fill="none" xmlns="http://www.w3.org/2000/svg"><g clip-path="url(#a)"><path d="M47.79 131.303s.541-18.844 20.307-34.45c13.699-10.814 37.347-21.64 46.208-46.467 5.58-15.635 5.028-31.142 15.778-38.852 3.224-2.312 6.154-3.973 10.093-5.335 3.688-1.276 9.532-2.271 9.532-2.271s-3.145-2.144-8.768-2.932c-16.565-2.32-36.98 1.45-45.212 5.611-4.777 2.415-7.597 6.682-9.5 10.496-3.128 6.266-3.634 15.934-3.765 19.553-.116 3.189-1.588 8.36-8.555 13.426-10.882 7.915-28.215 15.092-38.714 21.621C9.148 87.901 4.052 105.14.292 119.068c25.915 3.438 47.497 12.235 47.497 12.235Z" fill="#fff"/><path d="M47.789 131.591a.274.274 0 0 1-.108-.022c-.216-.087-21.848-8.823-47.427-12.216a.288.288 0 0 1-.24-.36c1.65-6.111 3.909-14.48 9.127-22.908 5.771-9.322 14.243-17.377 25.9-24.627 4.351-2.705 9.818-5.494 15.606-8.447C58.87 58.817 67.373 54.48 73.74 49.85c6.754-4.913 8.316-9.892 8.436-13.204.31-8.515 1.623-15.317 3.796-19.671 1.649-3.305 4.441-8.002 9.627-10.624 4.26-2.153 11.576-4.121 19.57-5.264 9.093-1.3 18.26-1.433 25.812-.375 5.625.788 8.759 2.89 8.89 2.979a.288.288 0 0 1-.114.52c-.058.01-5.863 1.007-9.486 2.26-3.611 1.249-6.514 2.784-10.019 5.298-7.249 5.199-9.287 13.947-11.647 24.076-1.107 4.749-2.251 9.66-4.028 14.638-3.094 8.67-8.241 16.395-15.734 23.615-6.51 6.272-13.885 11.295-20.391 15.727-3.691 2.514-7.178 4.889-10.175 7.255-10.15 8.013-15.1 16.892-17.467 22.93-2.565 6.545-2.73 11.256-2.732 11.303a.286.286 0 0 1-.288.279ZM.655 118.826c23.676 3.186 43.908 10.899 46.872 12.063.099-1.29.574-5.538 2.736-11.064 2.391-6.111 7.395-15.096 17.656-23.197 3.014-2.38 6.508-4.76 10.208-7.28 6.488-4.418 13.84-9.427 20.316-15.666 7.428-7.157 12.527-14.809 15.591-23.393 1.766-4.948 2.906-9.842 4.009-14.576 2.387-10.242 4.448-19.088 11.872-24.413 3.554-2.549 6.5-4.106 10.167-5.374 2.878-.995 7.098-1.827 8.812-2.145-1.185-.645-3.95-1.934-7.994-2.5-7.5-1.051-16.609-.918-25.65.374-7.935 1.135-15.185 3.082-19.392 5.208-5.034 2.545-7.76 7.136-9.373 10.367-2.136 4.282-3.428 11.002-3.735 19.436-.125 3.44-1.731 8.6-8.672 13.648-6.403 4.657-14.926 9.005-23.17 13.21-5.776 2.947-11.233 5.73-15.562 8.423C9.078 88.283 4.149 105.887.656 118.826Z" fill="#5B2448"/><path d="M111.307 43.152h-.001l-27.083-.104a.288.288 0 0 1 .003-.575l27.082.104a.288.288 0 0 1-.001.575Zm-2.038 4.203h-.001l-27.082-.104a.288.288 0 0 1 0-.575h.002l27.083.104a.288.288 0 0 1-.002.575Z" fill="#5B2448"/><path d="M99.317 50.425 98.33 52.2a34.062 34.062 0 0 1-7.044 8.803l-2.167 1.938a.271.271 0 0 1-.266.094L68.11 58.737a.336.336 0 0 1-.128-.601l1.817-1.037a47.86 47.86 0 0 0 9.558-7.166l.093-.09a.386.386 0 0 1 .23-.073l19.43.213a.271.271 0 0 1 .207.442Z" fill="#9B3C82"/><path d="M90.235 70.927a.293.293 0 0 1-.073-.01L60.273 63.11a.288.288 0 0 1 .146-.557l29.889 7.809a.288.288 0 0 1-.073.566Zm-7.434 4.09a.286.286 0 0 1-.082-.012l-29.356-8.752a.288.288 0 0 1 .164-.552l29.356 8.753a.288.288 0 0 1-.082.563Zm-7.218 3.994A.286.286 0 0 1 75.5 79l-29.355-8.752a.288.288 0 0 1 .164-.552l29.356 8.753a.288.288 0 0 1-.082.563Zm-29.89 39.679a.295.295 0 0 1-.092-.015l-6.983-2.358a155.75 155.75 0 0 0-24.376-6.09l-7.568-1.251a.288.288 0 0 1 .094-.568l7.568 1.251a156.419 156.419 0 0 1 24.467 6.113l6.982 2.358a.287.287 0 0 1-.092.56Zm67.004-79.74h-.001l-27.083-.105a.288.288 0 0 1 .001-.575h.001l27.083.104a.288.288 0 0 1-.001.575Z" fill="#5B2448"/><path d="M34.883 117.922a1.079 1.079 0 0 1-1.078-1.049l-.199-7.1a1.079 1.079 0 0 1 2.157-.06l.112 4.007 6.912-9.227a1.079 1.079 0 0 1 1.727 1.293l-8.768 11.704c-.207.277-.53.432-.863.432Z" fill="#F94F46"/></g><defs><clipPath id="a"><path fill="#fff" d="M0 0h150v131.592H0z"/></clipPath></defs></svg>
